!!!!SEGMENT: pl-wtm--r-1427--001-002_stefani-jozef--no-19-gloria.krn
!!!cenid: 18xx:2438
!!!COM: Stefani, Józef
!!!COM-rismID: pe30024097
!!!CDT: 1800/04/16-1876/03/19
!!!CNT: Polish
!!!OPR: No. 19
!!!OTL: Gloria
!!!OMV: 002
!!!PDT:
!!!AGN: Sacred; Mass
!!!YEC: Copyright 2022 Narodowy Instytut Fryderyka Chopina (https://polishscores.org)
!!!YEM: License CC-BY-4.0 (https://creativecommons.org/licenses/by/4.0)
!!!SMS-siglum: PL-Wtm
!!!SMS-shelfmark: R 1427
!!!SMS-shelfwork: 001-002 M
!!!SMS-variant:
!!!SMS-altvar:
!!!NIFC-rismSourceID: 1001116126
!!!NIFC-rismChildID: 1001116126
!!!NIFC-islandoraID:
!!!URL-pdf-islandora:
!!!URL-scan:
!!!IIIF:
!!!ONB-nifc: UWAGA: części Mszy: 1. Kyrie, 2. Gloria, 3. Graduale, 4. Credo, 5. Offertorium.
!!!OMD: Allegro moderato.
!!!AIN: 2 organ 1 vox
!!!key:
**kern	**kern	**kern	**text	**text	**text	**dynam
*part3	*part2	*part1	*	*	*	*
*staff3	*staff2	*staff1	*	*	*	*
*Iorgan	*Iorgan	*Ivox	*	*	*	*
*I"Organy	*I"Organy	*I"Głos	*	*	*	*
*>[A,B,B,B,C]	*>[A,B,B,B,C]	*>[A,B,B,B,C]	*>[A,B,B,B,C]	*>[A,B,B,B,C]	*>[A,B,B,B,C]	*>[A,B,B,B,C]
*>A	*>A	*>A	*>A	*>A	*>A	*>A
*clefF4	*clefG2	*clefG2	*	*	*	*
*k[]	*k[]	*k[]	*	*	*	*
*C:	*C:	*C:	*	*	*	*
*M3/4	*M3/4	*M3/4	*	*	*	*
=1	=1	=1	=1	=1	=1	=1
*all\right	*all\right	*all\right	*	*	*	*
*^	*	*	*	*	*	*
4.G/	4.GG\	2.r	2.r	.	.	.	.
8G/L	8GG\L	.	.	.	.	.	.
8.A/	8.F\	.	.	.	.	.	.
16B/Jk	16D\Jk	.	.	.	.	.	.
*v	*v	*	*	*	*	*	*
=2!|:	=2!|:	=2!|:	=2!|:	=2!|:	=2!|:	=2!|:
*>B	*>B	*>B	*>B	*>B	*>B	*>B
*2\right	*	*2\right	*	*	*	*
!	!	!	!	!	!	!LO:DY:a
2C\	2c< 2E</	2cc\	1.) Chwa-	2.) Przed-	3.) Je-	f
4C\	4G< 4E</	4g/	-łę	-nim	-mu	.
=3	=3	=3	=3	=3	=3	=3
2CC/	2e 2c 2G</	2ee\	Pa-	Ko-	słoń-	.
4C\	4c 4G 4E</	4cc\	-na	-ło	-ce	.
=4	=4	=4	=4	=4	=4	=4
2CC/	2A< 2F</	2a/	wdzię-	czas	w hoł-	.
4C\	4B< 4F</	4b/	-cznem	za-	-dzie	.
!!LO:LB:g=original
=5	=5	=5	=5	=5	=5	=5
2CC\	2c< 2E</	2cc\	pie-	-trzy-	świe-	.
4C 4CC\	4G< 4E</	4g/	-niem	-ma	-ci	.
=6	=6	=6	=6	=6	=6	=6
[>2.D [2.DD\	4B< 4G</	4b\	Lu-	pa-	Wia-	.
.	4d< 4B</	4dd\	-dy	-dną	-try	.
.	4c< 4A</	4cc\	A-	te	wy-	.
=7	=7	=7	=7	=7	=7	=7
2D] 2DD\]	4B< 4G</	4b\	-nio-	świa-	-ro-	.
.	4c< 4A</	4cc\	-ły	-ty	-ki	.
4D 4DD\	4A< 4F#X</	4a/	roz-	i	roz-	.
=8	=8	=8	=8	=8	=8	=8
2.D 2.DD\	2.A< 2.F#X</	2.a/	-nie-	słoń-	-no-	.
=9	=9	=9	=9	=9	=9	=9
4.GG\	4.G</	2g/	-ście	-ca	-szą.	.
8GG\L	8G</L	.	.	.	.	.
8.F 8.FF\	8.A</	4r	.	.	.	.
16DJk 16DD\	16B</Jk	.	.	.	.	.
!!LO:LB:g=original
=10	=10	=10	=10	=10	=10	=10
2C 2CC\	2c< 2E</	2cc\	O-	Je-	Lu-	.
4C\	4G< 4E</	4g/	-ży-	-mu	-dy	.
=11	=11	=11	=11	=11	=11	=11
2CC/	2e 2c 2G</	2ee\	-wie-	tyl-	źiem-	.
4C\	4c 4G< 4E</	4cc\	-ni	-ko	-skie	.
=12	=12	=12	=12	=12	=12	=12
2CC/	2A< 2F</	(4a\	Je-	gra-	Je-	.
.	.	4ff\)	.	.	.	.
4C\	4B< 4F</	4b\	-go	-nic	-go	.
=13	=13	=13	=13	=13	=13	=13
2CC/	2c< 2E</	2cc\	thnie-	nie-	dzie-	.
4C\	4G< 4E</	4g/	-niem	-ma	-ci	.
=14	=14	=14	=14	=14	=14	=14
*	*^	*	*	*	*	*
4AA\	4c< 4A</	2.E</	4cc\	W nim	Je-	Cno-	.
4GG#X\	4B</	.	4b\	i	-go	-tą	.
4AA\	4c< 4A</	.	4cc\	dla	iest	ku	.
=15	=15	=15	=15	=15	=15	=15	=15
2.FF\	2A< 2F</	2ryy	2a/	nie-	wie-	nie-	.
.	4A< 4F</	8eL/	8ee\	-go	-czność	-mu	.
.	.	8dJ/	8dd\	ie-	bez	się	.
*	*v	*v	*	*	*	*	*
!!LO:LB:g=original
=16	=16	=16	=16	=16	=16	=16
2.GG\	2c< 2G< 2E</	(2cc\	-ste-	koń-	wzno-	.
.	4d 4B< 4G</	4dd\)	.	.	.	.
=17	=17	=17	=17	=17	=17	=17
2.C\	2.e 2.c 2.G</	2.ee\	-ście	-ca	-szą	.
=18	=18	=18	=18	=18	=18	=18
*	*^	*	*	*	*	*
4AA\	4c< 4A</	2.E</	4cc\	W nim	Je-	Cno-	.
4GG#X\	4B</	.	4b\	i	-go	-tą	.
4AA\	4c< 4A</	.	4cc\	dla	iest	ku	.
=19	=19	=19	=19	=19	=19	=19	=19
2.FF\	2A< 2F</	2ryy	2a/	Nie-	wie-	nie-	.
.	4A< 4F</	8eL/	8ee\	-go	-czność	-mu	.
.	.	8d/J	8dd\	ie-	bez	się	.
*	*v	*v	*	*	*	*	*
=20	=20	=20	=20	=20	=20	=20
2GG\	2c 2G< 2E</	(2cc\	-ste-	koń-	wzno-	.
4GG 4GGG\	4B 4G< 4F</	4b\)	.	.	.	.
=21	=21	=21	=21	=21	=21	=21
4.C 4.CC\	4.c 4.G< 4.E</	4.cc\	-ście.	-ca.	-szą.	.
8GG\L	8G</L	8r	.	.	.	.
8.F 8.FF\	8.A</	4r	.	.	.	.
16DJk 16DD\	16B</Jk	.	.	.	.	.
=22:|!	=22:|!	=22:|!	=22:|!	=22:|!	=22:|!	=22:|!
*>C	*>C	*>C	*>C	*>C	*>C	*>C
!	!	!LO:TX:t=P:problem=brak taktu	!	!	!	!
2.C 2.CC\	2.c 2.G< 2.E</	2.ryy	.	.	.	.
==	==	==	==	==	==	==
*-	*-	*-	*-	*-	*-	*-
!!!system-decoration: s1{(s2,s3)}
!!!RDF**kern: > = above
!!!RDF**kern: < = below
!!!ENC: Marta Lawrence
!!!END: 2021-06-26
!!!ENC: Marcin Jachim
!!!END: 2021-06-19
